X: 15938
T: Grannie's
R: hornpipe
M: 4/4
K: Gmajor
cB AG AB cd|ec Ac dB GB|cB AG AB cd|1 e2 ge dB GB:|2 ef g/f/e dB GB||
cg fa g2 eg|cg eg dB GB|cg fa g2 fg|af ge dB GB|
cg fa g/a/g eg|cg e/f/g dB GB|cg fa g2 ab|af ge dB GB||
"variations"
cB AG Ae ee|Ae ee dB GB|cB AG AB cd|ef g/f/e dB GB|
cB AG Ae ce|Ae (3cde dB GB|cB AG AB cd|ef g/f/e dB GB|
cg fa g2 eg|cg eg dB GB|cg gf g2 fg|af ge dB GB|
cg gf g4|cg gg dB GB|cg gf gf ab|af ge dB GB||

